Sardi-Orb-Colora-Aquamarine/scalable/apps/usb-creator.svg

<svg height="512" viewBox="0 0 512 512" width="512" xmlns="http://www.w3.org/2000/svg">
 <path d="m471.95 253.05c0 120.9-98.01 218.9-218.9 218.9-120.9 0-218.9-98.01-218.9-218.9 0-120.9 98.01-218.9 218.9-218.9 120.9 0 218.9 98.01 218.9 218.9" fill="#924565" fill-rule="evenodd"/>
 <g fill="#ffffff" transform="matrix(9.4959 0 0 9.4959 105.14 104.24)">
  <path d="m17.268 4.883l-16.591 16.592c-.902.902-.902 2.367 0 3.272l6.543 6.54c.904.904 2.369.9 3.268 0l16.591-16.59z"/>
  <path d="m31.774 6.312l-6.31-6.312-5.111 5.115 6.309 6.311zm-2.731-.366l-1.054 1.049-1.283-1.283 1.051-1.053zm-4.292-2.192l1.051-1.049 1.283 1.283-1.053 1.049z"/>
 </g>
 <circle cx="256" stroke="#fefefe" cy="256" r="181.13" stroke-width="18.771" fill="none"/>
</svg>

<?xml version="1.0" encoding="UTF-8" standalone="no"?>
<svg
   xmlns:dc="http://purl.org/dc/elements/1.1/"
   xmlns:cc="http://creativecommons.org/ns#"
   xmlns:rdf="http://www.w3.org/1999/02/22-rdf-syntax-ns#"
   xmlns:svg="http://www.w3.org/2000/svg"
   xmlns="http://www.w3.org/2000/svg"
   xmlns:sodipodi="http://sodipodi.sourceforge.net/DTD/sodipodi-0.dtd"
   xmlns:inkscape="http://www.inkscape.org/namespaces/inkscape"
   height="512"
   viewBox="0 0 512 512"
   width="512"
   version="1.1"
   id="svg12"
   sodipodi:docname="usb-creator.svg"
   inkscape:version="0.92.4 5da689c313, 2019-01-14">
  <metadata
     id="metadata18">
    <rdf:RDF>
      <cc:Work
         rdf:about="">
        <dc:format>image/svg+xml</dc:format>
        <dc:type
           rdf:resource="http://purl.org/dc/dcmitype/StillImage" />
        <dc:title></dc:title>
      </cc:Work>
    </rdf:RDF>
  </metadata>
  <defs
     id="defs16" />
  <sodipodi:namedview
     pagecolor="#ffffff"
     bordercolor="#666666"
     borderopacity="1"
     objecttolerance="10"
     gridtolerance="10"
     guidetolerance="10"
     inkscape:pageopacity="0"
     inkscape:pageshadow="2"
     inkscape:window-width="1920"
     inkscape:window-height="1021"
     id="namedview14"
     showgrid="false"
     inkscape:zoom="0.4609375"
     inkscape:cx="256"
     inkscape:cy="256"
     inkscape:window-x="0"
     inkscape:window-y="0"
     inkscape:window-maximized="1"
     inkscape:current-layer="svg12" />
  <path
     d="m471.95 253.05c0 120.9-98.01 218.9-218.9 218.9-120.9 0-218.9-98.01-218.9-218.9 0-120.9 98.01-218.9 218.9-218.9 120.9 0 218.9 98.01 218.9 218.9"
     fill="#924565"
     fill-rule="evenodd"
     id="path2"
     style="fill:#d0075c;fill-opacity:1" />
  <g
     transform="matrix(7.8571823,0,0,7.8571823,131.17472,130.42958)"
     id="g8"
     style="fill:#ffffff">
    <path
       d="M 17.268,4.883 0.677,21.475 c -0.902,0.902 -0.902,2.367 0,3.272 l 6.543,6.54 c 0.904,0.904 2.369,0.9 3.268,0 l 16.591,-16.59 z"
       id="path4"
       inkscape:connector-curvature="0" />
    <path
       d="M 31.774,6.312 25.464,0 20.353,5.115 26.662,11.426 Z M 29.043,5.946 27.989,6.995 26.706,5.712 27.757,4.659 Z m -4.292,-2.192 1.051,-1.049 1.283,1.283 -1.053,1.049 z"
       id="path6"
       inkscape:connector-curvature="0" />
  </g>
  <circle
     cx="256"
     stroke="#fefefe"
     cy="256"
     r="181.13"
     stroke-width="18.771"
     fill="none"
     id="circle10" />
</svg>
